source/images/adrianmejia-icon-logo.svg

<?xml version="1.0" encoding="UTF-8" standalone="no"?>
<svg width="150px" height="139px" viewBox="0 0 150 139" version="1.1" xmlns="http://www.w3.org/2000/svg" xmlns:xlink="http://www.w3.org/1999/xlink">
    <!-- Generator: Sketch 39.1 (31720) - http://www.bohemiancoding.com/sketch -->
    <title>adrianmejia-icon-logo</title>
    <desc>Created with Sketch.</desc>
    <defs>
        <rect id="path-1" x="0" y="0" width="149.688797" height="138.562332"></rect>
        <path d="M149.688797,109.417312 L149.688797,131.300029 L138.240956,137.994454 L138.240956,74.4151252 C138.240956,72.7429171 137.826846,70.9989364 137.002307,69.1831831 C136.176848,67.3720904 134.936358,65.5964179 133.28544,63.8524372 C131.360289,61.9024598 129.347714,60.541577 127.244956,59.7763134 C125.15232,59.0073214 122.14036,58.6260877 118.217358,58.6260877 L72.7094313,58.6260877 L0,58.6260877 L0,43.7654334 L37.42542,21.8831827 L74.8443983,0 L112.264297,21.8831827 L149.688797,43.7663655 L149.688797,65.6504803 L149.688797,109.417312 L149.688797,109.417312 Z" id="path-3"></path>
        <polygon id="path-5" points="43.9094777 0.0239249659 43.5684647 138.641079 0.126614329 113.180045 0.126614329 25.6157832"></polygon>
        <rect id="path-7" x="105.342324" y="-5.13485477" width="43.4128631" height="149.533195"></rect>
        <mask id="mask-8" maskContentUnits="userSpaceOnUse" maskUnits="objectBoundingBox" x="0" y="0" width="43.4128631" height="149.533195" fill="white">
            <use xlink:href="#path-7"></use>
        </mask>
        <polygon id="path-9" points="43.879668 0.146284334 43.7369244 138.696456 0.199288005 113.349056 0.131567866 25.8328689"></polygon>
        <rect id="path-11" x="105.186722" y="-4.97925311" width="42.9460581" height="149.377593"></rect>
        <mask id="mask-12" maskContentUnits="userSpaceOnUse" maskUnits="objectBoundingBox" x="0" y="0" width="42.9460581" height="149.377593" fill="white">
            <use xlink:href="#path-11"></use>
        </mask>
    </defs>
    <g id="Logo-Final" stroke="none" stroke-width="1" fill="none" fill-rule="evenodd">
        <g id="adrianmejia-icon-logo">
            <g id="newlogo" transform="translate(0.155602, 0.155602)">
                <g id="logo-adrianmejia">
                    <mask id="mask-2" fill="white">
                        <use xlink:href="#path-1"></use>
                    </mask>
                    <g id="Mask"></g>
                    <g mask="url(#mask-2)">
                        <g transform="translate(0.000000, -18.172109)">
                            <path d="M123.195204,146.717906 L112.099642,153.216407 L74.7349322,175.095843 L37.3702228,153.216407 L0,131.335107 L0,87.5762353 L0,70.8001682 L49.9185461,70.8001682 C51.8408581,70.8001682 53.3680486,70.9884225 54.5028742,71.3751826 C55.6376999,71.7572829 56.614477,72.3993978 57.4387188,73.306187 C58.2638795,74.2101804 58.8152118,75.0675762 59.0862835,75.8699869 C59.3518419,76.6472348 59.4933505,77.5027667 59.5016205,78.4393784 L59.5016205,78.485976 L59.5016205,78.5316416 L59.5016205,81.4589027 L33.8361827,81.4589027 C30.4032202,81.4589027 27.3800813,82.4710025 24.7667662,84.4914744 C21.5405533,87.0711174 19.6136469,90.6582004 18.9970736,95.2564514 C18.9970736,95.534173 18.9272382,95.9880337 18.7912429,96.6133734 L18.7912429,97.8696446 C18.7912429,101.072764 19.5484059,103.896578 21.0562998,106.336428 C22.5678692,108.77721 24.7346051,110.692372 27.5500755,112.087504 C29.8197268,113.128494 32.2584534,113.652251 34.868093,113.652251 L59.5016205,113.652251 L74.345324,113.652251 L74.345324,82.3973783 L74.345324,80.5157673 L74.345324,80.4235041 L74.345324,80.3349687 L74.345324,80.2473652 L74.345324,70.7955085 L91.2427404,70.7955085 L91.2427404,113.650387 L106.085525,113.650387 L106.085525,70.7955085 L116.290686,70.7955085 C118.696333,70.7955085 120.667346,72.0424602 122.167888,74.5596624 C122.863486,75.731126 123.195204,77.243684 123.195204,79.0507389 L123.195204,146.717906 Z M59.5016205,91.8091611 L40.7443765,91.8091611 C39.0260575,91.8091611 37.5301091,92.3468974 36.2592882,93.4260977 C34.9866294,94.5090259 34.3535161,95.7447942 34.3535161,97.1389943 C34.3535161,98.463298 34.9011729,99.5089481 36.0029186,100.277808 L37.3398995,101.003799 C38.508724,101.424109 39.4735555,101.633799 40.227043,101.633799 L59.5025394,101.633799 L59.5025394,91.8091611 L59.5016205,91.8091611 Z" id="Fill-1" stroke="none" fill="#7E8183" fill-rule="evenodd"></path>
                            <mask id="mask-4" fill="white">
                                <use xlink:href="#path-3"></use>
                            </mask>
                            <use id="Clip-4" stroke="none" fill="#0E557E" fill-rule="evenodd" xlink:href="#path-3"></use>
                        </g>
                    </g>
                </g>
            </g>
            <g id="Group" transform="translate(0.000000, 0.155602)">
                <mask id="mask-6" fill="white">
                    <use xlink:href="#path-5"></use>
                </mask>
                <use id="Rectangle-3" fill-opacity="0.15" fill="#FFFFFF" xlink:href="#path-5"></use>
                <g id="Rectangle-4" mask="url(#mask-6)" stroke-width="2" stroke="#979797" fill="#D8D8D8">
                    <use mask="url(#mask-8)" xlink:href="#path-7"></use>
                </g>
            </g>
            <g id="Group" transform="translate(128.060166, 69.398340) scale(-1, 1) translate(-128.060166, -69.398340) translate(106.120332, 0.000000)">
                <mask id="mask-10" fill="white">
                    <use xlink:href="#path-9"></use>
                </mask>
                <use id="Rectangle-3" fill-opacity="0.0869999975" fill="#000000" xlink:href="#path-9"></use>
                <g id="Rectangle-4" mask="url(#mask-10)" stroke-width="2" stroke="#979797" fill="#D8D8D8">
                    <use mask="url(#mask-12)" xlink:href="#path-11"></use>
                </g>
            </g>
        </g>
    </g>
</svg>

<svg width="150" height="139" viewBox="0 0 150 139" xmlns="http://www.w3.org/2000/svg" xmlns:xlink="http://www.w3.org/1999/xlink"><title>adrianmejia-icon-logo</title><defs><path id="c" d="M0 0h149.689v138.562H0z"/><path d="M149.689 109.417V131.3l-11.448 6.694V74.415c0-1.672-.414-3.416-1.239-5.232-.825-1.81-2.066-3.587-3.717-5.33-1.925-1.95-3.937-3.311-6.04-4.077-2.093-.769-5.105-1.15-9.028-1.15H0v-14.86l37.425-21.883L74.845 0l37.42 21.883 37.424 21.883V109.417z" id="e"/><path id="f" d="M43.91.024l-.342 138.617L.127 113.18V25.616z"/><path id="a" d="M105.342-5.135h43.413v149.533h-43.413z"/><mask id="h" x="0" y="0" width="43.413" height="149.533" fill="#fff"><use xlink:href="#a"/></mask><path id="i" d="M43.88.146l-.143 138.55L.199 113.35.132 25.833z"/><path id="b" d="M105.187-4.979h42.946v149.378h-42.946z"/><mask id="k" x="0" y="0" width="42.946" height="149.378" fill="#fff"><use xlink:href="#b"/></mask></defs><g fill="none" fill-rule="evenodd"><g transform="translate(.156 .156)"><mask id="d" fill="#fff"><use xlink:href="#c"/></mask><g mask="url(#d)"><g transform="translate(0 -18.172)"><path d="M123.195 146.718l-11.095 6.498-37.365 21.88-37.365-21.88L0 131.336V70.8h49.919c1.922 0 3.449.188 4.584.575a6.872 6.872 0 0 1 2.936 1.931c.825.904 1.376 1.762 1.647 2.564.266.777.407 1.633.416 2.57v3.019H33.836c-3.433 0-6.456 1.012-9.07 3.032-3.225 2.58-5.152 6.167-5.769 10.765 0 .278-.07.732-.206 1.357v1.257c0 3.203.757 6.027 2.265 8.466 1.512 2.441 3.679 4.356 6.494 5.752 2.27 1.04 4.708 1.564 7.318 1.564H74.345V70.796h16.898v42.854h14.843V70.796h10.205c2.405 0 4.376 1.246 5.877 3.764.695 1.171 1.027 2.684 1.027 4.49v67.668zM59.502 91.809H40.744c-1.718 0-3.214.538-4.485 1.617-1.272 1.083-1.905 2.319-1.905 3.713 0 1.324.547 2.37 1.649 3.139l1.337.726c1.169.42 2.134.63 2.887.63h19.276v-9.825h-.001z" fill="#7E8183"/><use fill="#0E557E" xlink:href="#e"/></g></g></g><g transform="translate(0 .156)"><mask id="g" fill="#fff"><use xlink:href="#f"/></mask><use fill-opacity=".15" fill="#FFF" xlink:href="#f"/><g mask="url(#g)" stroke-width="2" stroke="#979797" fill="#D8D8D8"><use mask="url(#h)" xlink:href="#a"/></g></g><g transform="matrix(-1 0 0 1 150 0)"><mask id="j" fill="#fff"><use xlink:href="#i"/></mask><use fill-opacity=".087" fill="#000" xlink:href="#i"/><g mask="url(#j)" stroke-width="2" stroke="#979797" fill="#D8D8D8"><use mask="url(#k)" xlink:href="#b"/></g></g></g></svg>
